X: 4040
T: SOMEBODY
R: Strathspey.
%R: strathspey
B: James Kerr "Merry Melodies" v.4 p.07 #40
Z: 2016 John Chambers <jc:trillian.mit.edu>
M: C
L: 1/8
K: D
|:\
vd>vfa>f e>de>f | d>d f<a b2 (a<f) |\
d>fa>f e>de>f | d>B B<A a2 (f<d) ::\
b2 g>b a2 (f<d) | g2 f>d e2 (c<A) |\
d>fe>g f>ba2 | d>B B<A a2 (f<d) :|

%%sep 1 1 500
%%sep 1 1 500

